public/img/icon-read-only-white.svg

<?xml version="1.0" standalone="no"?><!DOCTYPE svg PUBLIC "-//W3C//DTD SVG 1.1//EN" "http://www.w3.org/Graphics/SVG/1.1/DTD/svg11.dtd"><svg width="100%" height="100%" viewBox="0 0 21 20" version="1.1" xmlns="http://www.w3.org/2000/svg" xmlns:xlink="http://www.w3.org/1999/xlink" xml:space="preserve" style="fill-rule:evenodd;clip-rule:evenodd;stroke-linecap:square;stroke-miterlimit:1.41421;"><g id="Group"><path id="Line" d="M8.5,12.5l-4.12,3.98" style="fill:none;stroke-width:1.08px;stroke:#fff;"/><path id="Line-Copy" d="M16.98,3.88l-3.48,3.62" style="fill:none;stroke-width:1.08px;stroke:#fff;"/><circle id="Oval-146" cx="10.5" cy="10" r="9" style="fill:none;stroke-width:1.08px;stroke-linecap:butt;stroke:#fff;"/><path id="Key" d="M15.795,15.04l-2.053,0c-0.057,0 -0.105,-0.02 -0.147,-0.059c-0.041,-0.039 -0.062,-0.089 -0.062,-0.149l0,-1.03l-1.029,0c-0.056,0 -0.104,-0.019 -0.143,-0.059c-0.04,-0.039 -0.059,-0.087 -0.059,-0.143l0,-1.029l-1.03,0c-0.03,0 -0.056,-0.006 -0.079,-0.017l-0.005,0c-0.03,-0.015 -0.051,-0.03 -0.062,-0.045l-1.778,-1.772c-0.348,0.124 -0.736,0.185 -1.164,0.185c-0.502,0 -0.981,-0.097 -1.437,-0.292c-0.456,-0.195 -0.849,-0.457 -1.181,-0.788c-0.332,-0.33 -0.596,-0.723 -0.791,-1.181c-0.195,-0.457 -0.292,-0.937 -0.292,-1.44c0,-0.502 0.097,-0.981 0.292,-1.437c0.195,-0.456 0.459,-0.849 0.791,-1.181c0.332,-0.332 0.725,-0.595 1.181,-0.791c0.456,-0.195 0.935,-0.292 1.437,-0.292c0.503,0 0.983,0.097 1.44,0.292c0.458,0.196 0.852,0.459 1.184,0.791c0.332,0.332 0.595,0.725 0.79,1.181c0.195,0.456 0.293,0.935 0.293,1.437c0,0.402 -0.064,0.79 -0.191,1.165l4.241,4.246c0.015,0.012 0.03,0.032 0.045,0.062c0.011,0.027 0.017,0.055 0.017,0.085l0,2.053c0,0.06 -0.02,0.11 -0.059,0.149c-0.04,0.039 -0.089,0.059 -0.149,0.059ZM13.944,14.629l1.648,0l0,-1.766l-4.258,-4.264c-0.049,-0.041 -0.073,-0.093 -0.073,-0.157c0,-0.026 0.006,-0.054 0.017,-0.085l-0.006,-0.005c0.135,-0.364 0.203,-0.741 0.203,-1.131c0,-0.596 -0.147,-1.146 -0.442,-1.651c-0.294,-0.504 -0.694,-0.903 -1.198,-1.198c-0.504,-0.294 -1.055,-0.441 -1.651,-0.441c-0.596,0 -1.146,0.147 -1.651,0.441c-0.504,0.295 -0.904,0.694 -1.198,1.198c-0.294,0.505 -0.442,1.055 -0.442,1.651c0,0.597 0.148,1.147 0.442,1.651c0.294,0.505 0.694,0.904 1.198,1.198c0.505,0.295 1.055,0.442 1.651,0.442c0.383,0 0.759,-0.068 1.131,-0.203l0.005,0.006c0.038,-0.015 0.066,-0.022 0.085,-0.022c0.06,0 0.112,0.026 0.157,0.078l0.006,0l1.789,1.789l1.147,0c0.056,0 0.105,0.02 0.146,0.059c0.042,0.039 0.062,0.087 0.062,0.144l0,1.029l1.03,0c0.056,0 0.104,0.02 0.143,0.062c0.039,0.041 0.059,0.09 0.059,0.146l0,1.029ZM7.363,5.163c0.341,-0.001 0.632,0.12 0.872,0.362c0.24,0.242 0.36,0.534 0.36,0.875c0,0.341 -0.12,0.632 -0.36,0.872c-0.24,0.24 -0.531,0.36 -0.872,0.36c-0.341,0 -0.632,-0.12 -0.872,-0.36c-0.24,-0.24 -0.36,-0.531 -0.36,-0.872c0,-0.341 0.12,-0.633 0.36,-0.875c0.24,-0.242 0.531,-0.363 0.872,-0.363ZM7.363,7.221c0.229,0 0.423,-0.079 0.582,-0.239c0.159,-0.159 0.239,-0.353 0.239,-0.582c0,-0.229 -0.08,-0.423 -0.239,-0.582c-0.159,-0.16 -0.353,-0.239 -0.582,-0.239c-0.229,0 -0.423,0.079 -0.582,0.239c-0.16,0.159 -0.239,0.353 -0.239,0.582c0,0.229 0.079,0.423 0.239,0.582c0.159,0.16 0.353,0.239 0.582,0.239Z" style="fill:#7a8c9e;stroke-width:1px;stroke-linecap:butt;stroke-linejoin:round;stroke:#fff;"/></g></svg>

<?xml version="1.0" standalone="no"?>
<!DOCTYPE svg PUBLIC "-//W3C//DTD SVG 1.1//EN" "http://www.w3.org/Graphics/SVG/1.1/DTD/svg11.dtd">
<svg width="100%" height="100%" viewBox="0 0 21 20" version="1.1" xmlns="http://www.w3.org/2000/svg" xmlns:xlink="http://www.w3.org/1999/xlink" xml:space="preserve" style="fill-rule:evenodd;clip-rule:evenodd;stroke-linecap:square;stroke-miterlimit:1.41421;">
    <g id="Group">
        <path id="Line" d="M8.5,12.5L4.38,16.48" style="fill:none;stroke-width:1.08px;stroke:white;"/>
        <path id="Line-Copy" d="M16.98,3.88L13.5,7.5" style="fill:none;stroke-width:1.08px;stroke:white;"/>
        <circle id="Oval-146" cx="10.5" cy="10" r="9" style="fill:none;stroke-width:1.08px;stroke-linecap:butt;stroke:white;"/>
        <path id="Key" d="M15.795,15.04L13.742,15.04C13.685,15.04 13.637,15.02 13.595,14.981C13.554,14.942 13.533,14.892 13.533,14.832L13.533,13.802L12.504,13.802C12.448,13.802 12.4,13.783 12.361,13.743C12.321,13.704 12.302,13.656 12.302,13.6L12.302,12.571L11.272,12.571C11.242,12.571 11.216,12.565 11.193,12.554L11.188,12.554C11.158,12.539 11.137,12.524 11.126,12.509L9.348,10.737C9,10.861 8.612,10.922 8.184,10.922C7.682,10.922 7.203,10.825 6.747,10.63C6.291,10.435 5.898,10.173 5.566,9.842C5.234,9.512 4.97,9.119 4.775,8.661C4.58,8.204 4.483,7.724 4.483,7.221C4.483,6.719 4.58,6.24 4.775,5.784C4.97,5.328 5.234,4.935 5.566,4.603C5.898,4.271 6.291,4.008 6.747,3.812C7.203,3.617 7.682,3.52 8.184,3.52C8.687,3.52 9.167,3.617 9.624,3.812C10.082,4.008 10.476,4.271 10.808,4.603C11.14,4.935 11.403,5.328 11.598,5.784C11.793,6.24 11.891,6.719 11.891,7.221C11.891,7.623 11.827,8.011 11.7,8.386L15.941,12.632C15.956,12.644 15.971,12.664 15.986,12.694C15.997,12.721 16.003,12.749 16.003,12.779L16.003,14.832C16.003,14.892 15.983,14.942 15.944,14.981C15.904,15.02 15.855,15.04 15.795,15.04L15.795,15.04ZM13.944,14.629L15.592,14.629L15.592,12.863L11.334,8.599C11.285,8.558 11.261,8.506 11.261,8.442C11.261,8.416 11.267,8.388 11.278,8.357L11.272,8.352C11.407,7.988 11.475,7.611 11.475,7.221C11.475,6.625 11.328,6.075 11.033,5.57C10.739,5.066 10.339,4.667 9.835,4.372C9.331,4.078 8.78,3.931 8.184,3.931C7.588,3.931 7.038,4.078 6.533,4.372C6.029,4.667 5.629,5.066 5.335,5.57C5.041,6.075 4.893,6.625 4.893,7.221C4.893,7.818 5.041,8.368 5.335,8.872C5.629,9.377 6.029,9.776 6.533,10.07C7.038,10.365 7.588,10.512 8.184,10.512C8.567,10.512 8.943,10.444 9.315,10.309L9.32,10.315C9.358,10.3 9.386,10.293 9.405,10.293C9.465,10.293 9.517,10.319 9.562,10.371L9.568,10.371L11.357,12.16L12.504,12.16C12.56,12.16 12.609,12.18 12.65,12.219C12.692,12.258 12.712,12.306 12.712,12.363L12.712,13.392L13.742,13.392C13.798,13.392 13.846,13.412 13.885,13.454C13.924,13.495 13.944,13.544 13.944,13.6L13.944,14.629ZM7.363,5.163C7.704,5.162 7.995,5.283 8.235,5.525C8.475,5.767 8.595,6.059 8.595,6.4C8.595,6.741 8.475,7.032 8.235,7.272C7.995,7.512 7.704,7.632 7.363,7.632C7.022,7.632 6.731,7.512 6.491,7.272C6.251,7.032 6.131,6.741 6.131,6.4C6.131,6.059 6.251,5.767 6.491,5.525C6.731,5.283 7.022,5.162 7.363,5.162L7.363,5.163ZM7.363,7.221C7.592,7.221 7.786,7.142 7.945,6.982C8.104,6.823 8.184,6.629 8.184,6.4C8.184,6.171 8.104,5.977 7.945,5.818C7.786,5.658 7.592,5.579 7.363,5.579C7.134,5.579 6.94,5.658 6.781,5.818C6.621,5.977 6.542,6.171 6.542,6.4C6.542,6.629 6.621,6.823 6.781,6.982C6.94,7.142 7.134,7.221 7.363,7.221L7.363,7.221Z" style="fill:rgb(122,140,158);stroke-width:1px;stroke-linecap:butt;stroke-linejoin:round;stroke:white;"/>
    </g>
</svg>
